!!!COM: Schiørring, Niels
!!!CDT: 1743-1798
!!!OPR@@DA: Choral-Bog
!!!ONM: 30
!!!OTL@@DA: Herre Jeſu Chriſt! ſand Menneſke
**kern	**fb	**kern	**kern	**kern	**kern	**kern	**kern	**kern
*part6	*part6	*part6	*part5	*part5	*part4	*part3	*part2	*part1
*staff8	*	*staff7	*staff6	*staff5	*staff4	*staff3	*staff2	*staff1
*clefF4	*	*clefC1	*clefF4	*clefC1	*clefF4	*clefC4	*clefC3	*clefC1
*	*	*	*	*	*	*Trd0c0	*	*
*k[f#c#]	*	*k[f#c#]	*k[f#c#]	*k[f#c#]	*k[f#c#]	*k[f#c#]	*k[f#c#]	*k[f#c#]
*D:	*	*D:	*D:	*D:	*D:	*D:	*D:	*D:
*M4/4	*	*M4/4	*M4/4	*M4/4	*M4/4	*M4/4	*M4/4	*M4/4
*met(c)	*	*met(c)	*met(c)	*met(c)	*met(c)	*met(c)	*met(c)	*met(c)
*	*	*	*^	*^	*	*	*	*
2D	.	2d	2F#	2D	2d	2A	2D	2f#	2A	2d
=1	=1	=1	=1	=1	=1	=1	=1	=1	=1	=1
2F#	6	2d	2A	2F#	2d	2A	2F#	2a	2A	2d
2BB	.	2d	2F#	2BB	2d	2B	2BB	2f#	2B	2d
=2	=2	=2	=2	=2	=2	=2	=2	=2	=2	=2
2C#	6	2a	2E	2C#	2a	2e	2C#	2a	2e	2a
2AA	.	2a	2ryy@	2AA	2c#	2e	2AA	2cc#	2e	2a
=3	=3	=3	=3	=3	=3	=3	=3	=3	=3	=3
2D	6	2b	4B	2D	2b	2f#	2D	(4b	2f#	2b
2E	5	2b	4G#X	2E	2b	2e	2E	2g#X	2e	2b
.	.	.	4d	.	.	.	.	.	.	.
=4	=4	=4	=4	=4	=4	=4	=4	=4	=4	=4
2AA	.	2a	2ryy@	2AA	2c#	2e	2AA	2cc#	2e	2a
2G	2	2a	2c#	2Gni	2a	2e	2G	2cc#	2e	2a
=5	=5	=5	=5	=5	=5	=5	=5	=5	=5	=5
2F#	6	2a	2d	2F#	2a	2f#	2F#	2dd	2f#	2a
2G#X	5	2dd	2B	2G#X	2dd	2e	2G#X	2b	2e	2dd
=6	=6	=6	=6	=6	=6	=6	=6	=6	=6	=6
2A	.	2cc#	2A	2A	2cc#	2e	2A	2a	2e	2cc#
2C#	6	2a	[2A	2C#	2a	2e	2C#	[2a	2e	2a
=7	=7	=7	=7	=7	=7	=7	=7	=7	=7	=7
2D	6 5	2b	2A]	2D	2b	2f#	2D	2a]	2f#	2b
2E	#	2b	2G#X	2E	2b	2e	2E	2g#X	(4e	2b
.	.	.	.	.	.	.	.	.	4d)	.
=8	=8	=8	=8	=8	=8	=8	=8	=8	=8	=8
*	*	*	*	*	*	*^	*	*	*	*
2AA	.	2a	2A	2AA	2a	2c#	2e/	2AA	2a	2c#	2a
*	*	*	*	*	*	*v	*v	*	*	*	*
2D	.	2a	2A	2D	2a	2f#	2D	2a	2f#	2a
=9	=9	=9	=9	=9	=9	=9	=9	=9	=9	=9
2BB	.	2dd	2B	2BB	2dd	[2f#	2BB	2b	2f#	2dd
2F#	.	2cc#	2A	2F#	2cc#	2f#]	2F#	2a	2a	2cc#
=10	=10	=10	=10	=10	=10	=10	=10	=10	=10	=10
2G	.	2b	2B	2G	2b	2d	2G	2b	2d	2b
2D	.	2a	2d	2D	2a	2f#	2D	2dd	2f#	2a
=11	=11	=11	=11	=11	=11	=11	=11	=11	=11	=11
2D#X	6	2b	1B	2D#X	2b	2f#	2D#X	2b	2f#	2b
2E	.	2g	.	2E	2g	2e	2E	2b	2e	2g
=12	=12	=12	=12	=12	=12	=12	=12	=12	=12	=12
2BB	#	2f#	2B	2BB	2f#	2d#X	2BB	2b	2d#X	2f#
2BB	n	2f#	2ryy@	2BB	2B	2dn	2BB	2f#	2dn	2f#
=13	=13	=13	=13	=13	=13	=13	=13	=13	=13	=13
2GG	.	2b	2ryy@	2GG	2B	2d	2GG	2g	2d	2b
4E	.	2b	2G	4E	2b	2e	(4E	2g	2e	2b
4D	.	.	.	4D	.	.	4D)	.	.	.
=14	=14	=14	=14	=14	=14	=14	=14	=14	=14	=14
2C#	6	2a	1A	2C#	2a	2e	2C#	2a	2e	2a
2D	.	2f#	.	2D	2f#	2d	2D	2a	2d	2f#
=15	=15	=15	=15	=15	=15	=15	=15	=15	=15	=15
2GG	.	2g	2ryy@	2GG	2B	2.d	2GG	2b	2.d	2g
2AA	4	2e	4A	2AA	2e	.	2AA	(4a	.	2e
=16	=16	=16	=16	=16	=16	=16	=16	=16	=16	=16
2D	3	2d	2F#	2D	2d	2A	2D	2f#	2d	2d
*	*	*	*v	*v	*	*	*	*	*	*
*	*	*	*	*v	*v	*	*	*	*
==	==	==	==	==	==	==	==	==
*-	*-	*-	*-	*-	*-	*-	*-	*-
!!!system-decoration: {(s1,s2,s3,s4)}{(s5,s6)}{(s7,s8)}
!!!RDF**kern: i = editorial accidental
!!!AGN: chorale
!!!EED: Derek Remeš
!!!EED2: Victor Phan
!!!END: 2023/11/28
!!!ENC: Wolfgang Drescher
!!!EEV: 2023/11/28
!!!title: @{ONM}. @{OTL}